X:78
T:Frigate well manned - Hard
%%VWML:SBG-1-2-683-0
F:http://www.vwml.org/record/SBG/1/2/682
Z:Original Sibelius transcriptions by M. & S. Graebe
M:4/4
I:linebreak $
K:D
V:1 treble nm="P1"
V:1
 A,/ | D E F/G/ A | G/F/ E F D | E G/ F D/ | E/D/ C D | A | B A ^G F |$ ^G B A E | F =G F D | %9
w: ||||||||sign- ing that she|
w: |||||||||
w: |||||||||
w: |||||||||
w: |||||||||
w: Time~4|||||||||
 E/D/ C D"_(trumpeted with " z | !fermata!F, !fermata!A, !fermata!D !fermata!F |"^rall." F E D x | %12
w: wou- ld be mann'd||would be mann'd|
w: |||
w: |||
w: |||
w: |||
w: |||

